X: 13813
T: Four Green Fields
R: waltz
M: 3/4
K: Gmajor
G5|F4 E2|D5|z2 D2 D2|E5|C5|B,2 D4|z2 z4|
G5|F4 E2|D5|z2 z2 D2|D4 D2|E2 F2 G2 F5|z2 EF/E/ D2|
B5|A5|G5|z2 z2 GA|B4 G2|c4 B2|B2 A4|z2 z2 D2|
B5|A3 B AG|G5|z2 z2 D2|D4 D2|D2 F2 G2|A5|z2 D2 D2|
{^c}d5|c5|B5|z2 z2 B2|B4 G2|c4 B2|B2 A4|z2 z2 D2|
E5|G5|D5|z2 z2 c2|~B3 A G2|A4 F2|(G5|G5)||

